X:180
T:Country Farmer
M:6/8
L:1/8
B:Thompson's Compleat Collection of 200 Favourite Country Dances, vol. 1 (London, 1757)
Z:Transcribed and edited by Flynn Titford-Mock, 2007
Z:abc's:AK/Fiddler's Companion
K:G
D|EFG GFE|A2A ABc|BAG FED|G2G G2::c|Bcd efg|d2d dcB|
cde efg|A2A A2B|cde dcB|ABG c2B|ABG FED|G2G G2L:|

